X: 7842
T: Coming Of Spring, The
R: jig
M: 6/8
K: Edorian
A|:BEE B2 A|B/c/dB BAG|FEF DFA|dfe dBA|
BEE B2 A|Bef gfe|dBG FGA|1 BGE E2A:|2 BGE E2F||
|:GEF G2 A|B2 A Bec|dAA BAG|F/G/A F DEF|
GEF G2A|Bef gfe|dBG FGA|1 BEE E2 F:|2 BEE E2f||
g2e ege|Beg bag|~f3 dcd|AGA def|
~g3 ege|Beg bag|f/a/f/e/d f/g/a/f|gee e2f|
g2e ege|Beg bag|f2 d dcd|AGA def|
g2e fed|Bec dfe|dBG FGA|BGE E2A||

